svgs/artflow.svg

<svg width="24" height="24" viewBox="0 0 24 24" fill="none" xmlns="http://www.w3.org/2000/svg">
<path fill-rule="evenodd" clip-rule="evenodd" d="M10.8063 2.02941C10.3378 2.08219 9.31367 2.31966 8.82125 2.48975C5.80547 3.53133 3.50027 5.82187 2.52431 8.74653C2.12671 9.93811 1.96523 11.0833 2.00618 12.4213C2.09646 15.3714 3.34208 18.0082 5.43025 19.6696C6.87798 20.8214 8.48739 21.5375 10.4411 21.8991C11.1724 22.0345 13.2106 22.0334 13.8314 21.8973C15.0964 21.62 15.957 21.1773 16.3823 20.5851C16.7301 20.1007 16.7102 19.8662 16.2655 19.2055C15.9365 18.7168 15.8133 18.3959 15.8133 18.0279C15.8133 17.291 16.2492 16.9697 17.9688 16.4391C19.2604 16.0407 19.8411 15.7881 20.4367 15.3657C21.1304 14.8738 21.6272 14.1361 21.8736 13.2321C21.9736 12.8653 21.9876 12.679 21.9896 11.6934C21.9916 10.7148 21.9768 10.5031 21.8732 10.0306C21.4599 8.1449 20.5529 6.45193 19.205 5.0503C17.6197 3.40172 15.6187 2.35242 13.5184 2.06832C13.0148 2.00015 11.2861 1.97537 10.8063 2.02941ZM16.9608 4.45931C16.9608 4.49671 16.8904 4.99424 16.8043 5.56494C16.7183 6.13564 16.6479 6.63015 16.6479 6.66384C16.6479 6.69779 16.5332 6.74025 16.3904 6.75918C15.9696 6.81499 15.3161 7.1754 14.9223 7.56892C14.2787 8.21197 14.0425 8.90478 14.0409 10.1539L14.04 10.8833L13.8284 10.5212C13.4282 9.83636 12.8651 9.22742 12.1792 8.73803L11.8571 8.50812L11.9582 8.13186C12.0139 7.9249 12.1769 7.51593 12.3205 7.22312C13.0383 5.75928 14.305 4.79938 15.9503 4.47245C16.4341 4.37633 16.9608 4.3695 16.9608 4.45931ZM9.84228 8.40167C11.9318 8.8329 13.5926 10.5498 13.9604 12.6587C14.0252 13.0308 14.04 13.6453 14.04 15.9771V18.839H12.8925H11.7451L11.7442 16.0877C11.7432 13.0283 11.733 12.9119 11.4064 12.2242C11.1904 11.7694 10.6833 11.2323 10.2236 10.9716C9.31226 10.4546 8.05125 10.4925 7.16119 11.0637C6.82514 11.2794 6.33554 11.8044 6.15007 12.148C5.53847 13.2811 5.75879 14.7428 6.67957 15.6609C7.21371 16.1934 8.04186 16.5422 8.77212 16.5422C9.47113 16.5422 10.309 16.2002 10.8094 15.7105L11.1192 15.4074V16.8549V18.3025L10.6889 18.4663C9.94498 18.7497 9.60835 18.8089 8.74604 18.8076C8.1165 18.8067 7.87997 18.7846 7.535 18.6945C6.53494 18.4333 5.68055 17.9366 4.99041 17.2152C4.3291 16.524 3.96327 15.8927 3.67959 14.9532C3.54998 14.5239 3.53767 14.408 3.53548 13.5972C3.53261 12.5261 3.61898 12.1325 4.05043 11.2501C4.78574 9.74623 6.12988 8.70856 7.76288 8.38399C8.29837 8.27759 9.28154 8.28593 9.84228 8.40167ZM19.7618 11.1522C20.1094 11.3177 20.4734 11.7205 20.5885 12.0668C20.7064 12.4217 20.6718 12.9908 20.5136 13.2994C20.3591 13.6009 20.0281 13.9225 19.7329 14.058C19.384 14.2182 18.7492 14.2135 18.4127 14.0484C18.107 13.8983 17.7768 13.5678 17.6252 13.2602C17.4476 12.8999 17.4588 12.2341 17.6485 11.8727C17.7825 11.6176 18.0902 11.2932 18.3095 11.1758C18.7397 10.9456 19.3086 10.9364 19.7618 11.1522ZM15.9544 12.8018C15.9397 12.8663 15.8847 13.256 15.8323 13.6678L15.7368 14.4164L15.4317 14.5704C15.2639 14.6552 15.0229 14.82 14.8962 14.9368L14.6659 15.1491V13.9726V12.7962L14.9658 12.7635C15.1308 12.7455 15.3126 12.7236 15.37 12.7147C15.4274 12.7058 15.5883 12.6954 15.7277 12.6915C15.9651 12.6849 15.9794 12.6918 15.9544 12.8018Z" fill="black"/>
</svg>

<svg xmlns="http://www.w3.org/2000/svg" width="24" height="24" fill="none" viewBox="0 0 24 24"><path fill="#000" fill-rule="evenodd" d="M10.806 2.03c-.468.052-1.492.29-1.985.46-3.016 1.041-5.32 3.332-6.297 6.257-.397 1.191-.559 2.336-.518 3.674.09 2.95 1.336 5.587 3.424 7.249 1.448 1.151 3.057 1.867 5.011 2.23.731.135 2.77.133 3.39-.003 1.265-.277 2.126-.72 2.551-1.312.348-.484.328-.719-.117-1.38-.328-.488-.452-.81-.452-1.177 0-.737.436-1.058 2.156-1.589 1.291-.398 1.872-.65 2.468-1.073.693-.492 1.19-1.23 1.437-2.134.1-.367.114-.553.116-1.539.002-.978-.013-1.19-.117-1.662a10.308 10.308 0 0 0-2.668-4.98c-1.585-1.65-3.586-2.699-5.687-2.983-.503-.068-2.232-.093-2.712-.039m6.155 2.43c0 .037-.07.534-.157 1.105a36.21 36.21 0 0 0-.156 1.099c0 .034-.115.076-.258.095-.42.056-1.074.416-1.468.81-.643.643-.88 1.336-.881 2.585l-.001.73-.212-.363a5.805 5.805 0 0 0-1.649-1.783l-.322-.23.101-.376a6.36 6.36 0 0 1 .362-.909c.718-1.464 1.985-2.424 3.63-2.75.484-.097 1.01-.103 1.01-.014M9.842 8.401c2.09.43 3.75 2.148 4.118 4.257.065.372.08.986.08 3.318v2.862h-2.295v-2.751c-.002-3.06-.012-3.176-.339-3.864-.216-.455-.723-.992-1.182-1.252-.912-.517-2.173-.48-3.063.092-.336.215-.825.74-1.01 1.084-.613 1.133-.392 2.595.529 3.513.534.532 1.362.881 2.092.881.7 0 1.537-.342 2.037-.832l.31-.303v2.895l-.43.164c-.744.284-1.08.343-1.943.342-.63-.001-.866-.023-1.211-.113a5.32 5.32 0 0 1-2.545-1.48c-.66-.691-1.027-1.322-1.31-2.262-.13-.43-.142-.545-.145-1.356-.002-1.07.084-1.464.515-2.347a5.225 5.225 0 0 1 3.713-2.866c.535-.106 1.519-.098 2.08.018m9.92 2.75c.347.166.711.569.826.915.118.355.084.924-.074 1.232a1.86 1.86 0 0 1-.781.759c-.349.16-.984.155-1.32-.01a1.92 1.92 0 0 1-.788-.788c-.177-.36-.166-1.026.023-1.387.134-.255.442-.58.662-.697.43-.23.999-.24 1.452-.024m-3.808 1.65c-.014.064-.07.454-.122.866l-.095.748-.305.154c-.168.085-.41.25-.536.367l-.23.212v-2.352l.3-.032c.165-.018.347-.04.404-.05a4.04 4.04 0 0 1 .358-.023c.237-.006.251 0 .226.11" clip-rule="evenodd"/></svg>
